img/horizontal-logo.svg

<svg width="176" height="19" viewBox="0 0 176 19" fill="none" xmlns="http://www.w3.org/2000/svg">
<path d="M14.2383 13.8281C14.2383 14.4766 14.1172 15.0352 13.875 15.5039C13.6406 15.9727 13.3242 16.3711 12.9258 16.6992C12.5273 17.0273 12.0664 17.2969 11.543 17.5078C11.0273 17.7109 10.4883 17.8711 9.92578 17.9883C9.36328 18.1055 8.79688 18.1836 8.22656 18.2227C7.66406 18.2617 7.13672 18.2812 6.64453 18.2812C6.16016 18.2812 5.65625 18.2617 5.13281 18.2227C4.61719 18.1914 4.10156 18.1328 3.58594 18.0469C3.07031 17.9609 2.5625 17.8477 2.0625 17.707C1.5625 17.5586 1.08984 17.375 0.644531 17.1562L0.621094 2.0625C1.05859 1.88281 1.52344 1.72266 2.01562 1.58203C2.50781 1.43359 3.00781 1.3125 3.51562 1.21875C4.03125 1.11719 4.54297 1.04297 5.05078 0.996094C5.55859 0.941406 6.05078 0.914062 6.52734 0.914062C7.08203 0.914062 7.64062 0.949219 8.20312 1.01953C8.77344 1.08984 9.32031 1.20703 9.84375 1.37109C10.3672 1.53516 10.8555 1.75 11.3086 2.01562C11.7617 2.27344 12.1562 2.59375 12.4922 2.97656C12.8359 3.35938 13.1016 3.80469 13.2891 4.3125C13.4844 4.82031 13.582 5.40625 13.582 6.07031C13.582 6.50781 13.5195 6.91797 13.3945 7.30078C13.2695 7.68359 13.0898 8.02734 12.8555 8.33203C12.6211 8.63672 12.3359 8.89844 12 9.11719C11.6641 9.32812 11.2852 9.48438 10.8633 9.58594C11.3711 9.71875 11.832 9.91406 12.2461 10.1719C12.668 10.4297 13.0234 10.7422 13.3125 11.1094C13.6094 11.4766 13.8359 11.8906 13.9922 12.3516C14.1562 12.8125 14.2383 13.3047 14.2383 13.8281ZM8.28516 7.14844C8.28516 6.92188 8.23828 6.73047 8.14453 6.57422C8.05078 6.41016 7.93359 6.27734 7.79297 6.17578C7.66016 6.07422 7.51172 6 7.34766 5.95312C7.19141 5.90625 7.05078 5.88281 6.92578 5.88281C6.76953 5.88281 6.61719 5.90625 6.46875 5.95312C6.32031 6 6.17578 6.05469 6.03516 6.11719L5.96484 8.71875C6.14453 8.71875 6.36719 8.70312 6.63281 8.67188C6.89844 8.64062 7.15234 8.57422 7.39453 8.47266C7.64453 8.36328 7.85547 8.20703 8.02734 8.00391C8.19922 7.79297 8.28516 7.50781 8.28516 7.14844ZM6.62109 10.9688C6.39453 10.9688 6.17578 10.9922 5.96484 11.0391L5.91797 13.7109C6.03516 13.7344 6.14844 13.7578 6.25781 13.7812C6.375 13.7969 6.48828 13.8047 6.59766 13.8047C6.76172 13.8047 6.94141 13.7891 7.13672 13.7578C7.33203 13.7188 7.51562 13.6484 7.6875 13.5469C7.85938 13.4375 8 13.293 8.10938 13.1133C8.22656 12.9336 8.28516 12.6953 8.28516 12.3984C8.28516 12.1016 8.22656 11.8594 8.10938 11.6719C8 11.4844 7.86328 11.3398 7.69922 11.2383C7.53516 11.1289 7.35547 11.0586 7.16016 11.0273C6.96484 10.9883 6.78516 10.9688 6.62109 10.9688ZM27.7148 8.53125C27.7148 9.21094 27.668 9.89062 27.5742 10.5703C26.2383 10.6562 24.9102 10.7969 23.5898 10.9922C22.2695 11.1797 20.9492 11.3672 19.6289 11.5547C19.832 12.1172 20.1484 12.5664 20.5781 12.9023C21.0156 13.2383 21.5352 13.4062 22.1367 13.4062C22.4492 13.4062 22.7891 13.3477 23.1562 13.2305C23.5312 13.1133 23.9023 12.9688 24.2695 12.7969C24.6367 12.6172 24.9883 12.4258 25.3242 12.2227C25.6602 12.0195 25.9492 11.8359 26.1914 11.6719L25.6289 16.9922C25.3242 17.2266 24.9922 17.4258 24.6328 17.5898C24.2812 17.7539 23.9141 17.8867 23.5312 17.9883C23.1484 18.0898 22.7617 18.1641 22.3711 18.2109C21.9805 18.2578 21.5977 18.2812 21.2227 18.2812C20.4492 18.2812 19.7422 18.1758 19.1016 17.9648C18.4609 17.7539 17.8789 17.4609 17.3555 17.0859C16.8398 16.7031 16.3867 16.2539 15.9961 15.7383C15.6055 15.2227 15.2812 14.6602 15.0234 14.0508C14.7656 13.4414 14.5703 12.7969 14.4375 12.1172C14.3047 11.4375 14.2383 10.75 14.2383 10.0547C14.2383 9.32812 14.3047 8.60156 14.4375 7.875C14.5703 7.14844 14.7695 6.44922 15.0352 5.77734C15.3086 5.10547 15.6484 4.48438 16.0547 3.91406C16.4688 3.33594 16.9492 2.83203 17.4961 2.40234C18.043 1.97266 18.6602 1.63672 19.3477 1.39453C20.043 1.15234 20.8086 1.03125 21.6445 1.03125C22.3398 1.03125 22.9727 1.12891 23.543 1.32422C24.1211 1.51172 24.6328 1.77734 25.0781 2.12109C25.5312 2.45703 25.9219 2.85938 26.25 3.32812C26.5859 3.79688 26.8594 4.3125 27.0703 4.875C27.2891 5.42969 27.4492 6.01953 27.5508 6.64453C27.6602 7.26172 27.7148 7.89062 27.7148 8.53125ZM23.0273 7.92188C23.0273 7.70312 23.0039 7.48047 22.957 7.25391C22.9102 7.01953 22.832 6.80859 22.7227 6.62109C22.6211 6.43359 22.4844 6.28125 22.3125 6.16406C22.1406 6.03906 21.9258 5.97656 21.668 5.97656C21.3555 5.97656 21.0781 6.0625 20.8359 6.23438C20.6016 6.39844 20.3984 6.60938 20.2266 6.86719C20.0547 7.11719 19.9141 7.39062 19.8047 7.6875C19.6953 7.98438 19.6133 8.25781 19.5586 8.50781L23.0273 8.17969V7.92188ZM40.5 12C40.5 13.0703 40.3125 13.9961 39.9375 14.7773C39.5703 15.5508 39.0625 16.1914 38.4141 16.6992C37.7734 17.1992 37.0195 17.5703 36.1523 17.8125C35.293 18.0469 34.3672 18.1641 33.375 18.1641C32.9922 18.1641 32.5703 18.1133 32.1094 18.0117C31.6562 17.9102 31.1953 17.7852 30.7266 17.6367C30.2578 17.4805 29.8047 17.3164 29.3672 17.1445C28.9375 16.9648 28.5547 16.7969 28.2188 16.6406L28.7344 12.0469C29.3984 12.4453 30.1328 12.75 30.9375 12.9609C31.75 13.1641 32.5469 13.2656 33.3281 13.2656C33.4766 13.2656 33.6562 13.2617 33.8672 13.2539C34.0781 13.2383 34.2773 13.2031 34.4648 13.1484C34.6602 13.0859 34.8242 12.9961 34.957 12.8789C35.0898 12.7617 35.1562 12.5938 35.1562 12.375C35.1562 12.2266 35.1094 12.1016 35.0156 12C34.9219 11.8906 34.8008 11.8047 34.6523 11.7422C34.5039 11.6719 34.3359 11.6211 34.1484 11.5898C33.9609 11.5508 33.7773 11.5234 33.5977 11.5078C33.418 11.4922 33.25 11.4844 33.0938 11.4844C32.9375 11.4844 32.8125 11.4844 32.7188 11.4844C32.0469 11.4844 31.4336 11.3789 30.8789 11.168C30.332 10.957 29.8594 10.6602 29.4609 10.2773C29.0703 9.88672 28.7656 9.41797 28.5469 8.87109C28.3281 8.31641 28.2188 7.70312 28.2188 7.03125C28.2188 6.10938 28.4023 5.28516 28.7695 4.55859C29.1445 3.82422 29.6406 3.20312 30.2578 2.69531C30.8828 2.17969 31.5977 1.78516 32.4023 1.51172C33.207 1.23828 34.0391 1.10156 34.8984 1.10156C35.2812 1.10156 35.6758 1.11719 36.082 1.14844C36.4883 1.17188 36.8906 1.21875 37.2891 1.28906C37.6953 1.35938 38.0898 1.44922 38.4727 1.55859C38.8555 1.66797 39.2188 1.80469 39.5625 1.96875L39.1172 6.72656C38.5859 6.54688 38.0273 6.39844 37.4414 6.28125C36.8633 6.15625 36.2969 6.09375 35.7422 6.09375C35.6406 6.09375 35.5078 6.09766 35.3438 6.10547C35.1875 6.10547 35.0195 6.11719 34.8398 6.14062C34.668 6.15625 34.4922 6.18359 34.3125 6.22266C34.1328 6.26172 33.9727 6.31641 33.832 6.38672C33.6914 6.44922 33.5781 6.53516 33.4922 6.64453C33.4062 6.75391 33.3672 6.88281 33.375 7.03125C33.3828 7.20312 33.4453 7.33594 33.5625 7.42969C33.6875 7.52344 33.8438 7.59375 34.0312 7.64062C34.2266 7.67969 34.4375 7.69922 34.6641 7.69922C34.8984 7.69922 35.1289 7.69531 35.3555 7.6875C35.582 7.67188 35.793 7.66016 35.9883 7.65234C36.1836 7.63672 36.3438 7.63281 36.4688 7.64062C37.0938 7.67969 37.6562 7.8125 38.1562 8.03906C38.6562 8.26562 39.0781 8.56641 39.4219 8.94141C39.7734 9.31641 40.0391 9.76562 40.2188 10.2891C40.4062 10.8047 40.5 11.375 40.5 12ZM53.3906 1.47656L53.2734 6.44531L49.7812 6.58594L49.3594 17.4609L44.4141 17.7188L43.9688 6.84375L40.4766 7.03125L40.6172 1.5L53.3906 1.47656ZM134.461 7.19531C134.461 7.95312 134.348 8.625 134.121 9.21094C133.895 9.79688 133.582 10.3125 133.184 10.7578C132.793 11.1953 132.332 11.5664 131.801 11.8711C131.27 12.168 130.699 12.4141 130.09 12.6094C129.488 12.7969 128.863 12.9375 128.215 13.0312C127.566 13.1172 126.93 13.1641 126.305 13.1719V18.1641H120.844C120.844 17.2734 120.844 16.4062 120.844 15.5625C120.852 14.7188 120.855 13.8828 120.855 13.0547C120.863 12.2188 120.867 11.3789 120.867 10.5352C120.875 9.69141 120.883 8.82031 120.891 7.92188C120.906 6.96875 120.91 6.01562 120.902 5.0625C120.895 4.10938 120.914 3.14844 120.961 2.17969C121.961 1.88281 122.961 1.66016 123.961 1.51172C124.961 1.36328 125.992 1.28906 127.055 1.28906C127.656 1.28906 128.258 1.33984 128.859 1.44141C129.461 1.53516 130.035 1.6875 130.582 1.89844C131.137 2.10938 131.648 2.375 132.117 2.69531C132.594 3.00781 133.004 3.38281 133.348 3.82031C133.691 4.25781 133.961 4.75781 134.156 5.32031C134.359 5.88281 134.461 6.50781 134.461 7.19531ZM129.258 7.59375C129.258 7.08594 129.102 6.69141 128.789 6.41016C128.484 6.12109 128.086 5.97656 127.594 5.97656C127.43 5.97656 127.258 5.99219 127.078 6.02344C126.906 6.04688 126.742 6.07812 126.586 6.11719L126.445 9.53906C126.555 9.55469 126.66 9.5625 126.762 9.5625C126.863 9.5625 126.969 9.5625 127.078 9.5625C127.359 9.5625 127.629 9.51562 127.887 9.42188C128.152 9.32812 128.387 9.19531 128.59 9.02344C128.793 8.84375 128.953 8.63672 129.07 8.40234C129.195 8.16016 129.258 7.89062 129.258 7.59375ZM145.406 11.7891L144.914 16.9922L135.047 17.7656L135.422 1.03125H141.516L140.648 11.7891H145.406ZM160.734 16.9922L154.922 17.7422L154.219 15.0938H151.547L150.961 17.7422L144.984 17.1562L149.648 1.54688L156.164 1.21875L160.734 16.9922ZM153.797 11.5078L152.906 7.42969L152.039 11.5078H153.797ZM175.523 12.0703C175.523 12.9531 175.512 13.8281 175.488 14.6953C175.473 15.5547 175.445 16.4219 175.406 17.2969L168.656 17.1797C168.891 15.7969 169.094 14.418 169.266 13.043C169.438 11.6602 169.523 10.2656 169.523 8.85938C169.523 8.75781 169.52 8.59375 169.512 8.36719C169.504 8.14062 169.488 7.88672 169.465 7.60547C169.441 7.31641 169.406 7.02344 169.359 6.72656C169.32 6.42188 169.262 6.14453 169.184 5.89453C169.113 5.64453 169.023 5.44141 168.914 5.28516C168.812 5.12109 168.688 5.03906 168.539 5.03906C168.273 5.03906 168.047 5.11719 167.859 5.27344C167.68 5.42969 167.527 5.63281 167.402 5.88281C167.285 6.125 167.191 6.39844 167.121 6.70312C167.051 7.00781 166.996 7.3125 166.957 7.61719C166.926 7.92188 166.902 8.21094 166.887 8.48438C166.879 8.75 166.875 8.96875 166.875 9.14062C166.836 10.5234 166.805 11.8984 166.781 13.2656C166.758 14.625 166.727 16 166.688 17.3906L160.711 17.6484C160.867 14.8906 161.016 12.1484 161.156 9.42188C161.305 6.69531 161.422 3.95312 161.508 1.19531L167.039 0.914062L166.992 2.78906C167.211 2.52344 167.445 2.27344 167.695 2.03906C167.953 1.80469 168.227 1.60547 168.516 1.44141C168.805 1.26953 169.109 1.13672 169.43 1.04297C169.758 0.941406 170.102 0.890625 170.461 0.890625C171.125 0.890625 171.707 1 172.207 1.21875C172.707 1.4375 173.137 1.73438 173.496 2.10938C173.855 2.48438 174.156 2.92969 174.398 3.44531C174.641 3.95312 174.836 4.49609 174.984 5.07422C175.133 5.65234 175.246 6.25781 175.324 6.89062C175.402 7.51562 175.453 8.13281 175.477 8.74219C175.508 9.35156 175.523 9.94141 175.523 10.5117C175.523 11.082 175.523 11.6016 175.523 12.0703Z" fill="#333333"/>
<path d="M71.1562 1.47656L71.0391 6.44531L67.5469 6.58594L67.125 17.4609L62.1797 17.7188L61.7344 6.84375L58.2422 7.03125L58.3828 1.5L71.1562 1.47656ZM86.0742 9.02344C86.0742 9.73438 85.9922 10.4219 85.8281 11.0859C85.6641 11.7422 85.4258 12.3594 85.1133 12.9375C84.8086 13.5156 84.4336 14.0469 83.9883 14.5312C83.5508 15.0078 83.0547 15.418 82.5 15.7617C81.9531 16.1055 81.3555 16.375 80.707 16.5703C80.0586 16.7578 79.3711 16.8516 78.6445 16.8516C77.9414 16.8516 77.2695 16.7617 76.6289 16.582C75.9961 16.4023 75.4023 16.1523 74.8477 15.832C74.293 15.5039 73.7891 15.1133 73.3359 14.6602C72.8906 14.1992 72.5078 13.6914 72.1875 13.1367C71.875 12.5742 71.6289 11.9727 71.4492 11.332C71.2773 10.6914 71.1914 10.0234 71.1914 9.32812C71.1914 8.64844 71.2734 7.98438 71.4375 7.33594C71.6016 6.67969 71.8359 6.0625 72.1406 5.48438C72.4531 4.90625 72.8281 4.375 73.2656 3.89062C73.7031 3.40625 74.1914 2.98828 74.7305 2.63672C75.2773 2.28516 75.8672 2.01172 76.5 1.81641C77.1328 1.62109 77.8008 1.52344 78.5039 1.52344C79.6367 1.52344 80.668 1.69922 81.5977 2.05078C82.5352 2.40234 83.332 2.90625 83.9883 3.5625C84.6523 4.21094 85.1641 5 85.5234 5.92969C85.8906 6.85156 86.0742 7.88281 86.0742 9.02344ZM80.8711 9.32812C80.8711 8.99219 80.8203 8.66797 80.7188 8.35547C80.625 8.03516 80.4844 7.75391 80.2969 7.51172C80.1094 7.26172 79.875 7.0625 79.5938 6.91406C79.3203 6.75781 79.0039 6.67969 78.6445 6.67969C78.2773 6.67969 77.9492 6.74609 77.6602 6.87891C77.3711 7.01172 77.1211 7.19531 76.9102 7.42969C76.707 7.65625 76.5508 7.92578 76.4414 8.23828C76.332 8.54297 76.2773 8.86719 76.2773 9.21094C76.2773 9.53906 76.3242 9.86719 76.418 10.1953C76.5117 10.5234 76.6523 10.8203 76.8398 11.0859C77.0273 11.3516 77.2578 11.5664 77.5312 11.7305C77.8125 11.8945 78.1367 11.9766 78.5039 11.9766C78.8711 11.9766 79.1992 11.9062 79.4883 11.7656C79.7852 11.6172 80.0352 11.4219 80.2383 11.1797C80.4414 10.9297 80.5977 10.6445 80.707 10.3242C80.8164 10.0039 80.8711 9.67188 80.8711 9.32812ZM100.863 1.5C100.512 4.25 100.211 6.98828 99.9609 9.71484C99.7109 12.4336 99.4727 15.1719 99.2461 17.9297L94.4414 18.2812L94.6523 16.4766C94.4961 16.6562 94.3125 16.8125 94.1016 16.9453C93.8984 17.0781 93.6797 17.1875 93.4453 17.2734C93.2109 17.3516 92.9688 17.4102 92.7188 17.4492C92.4688 17.4805 92.2305 17.4922 92.0039 17.4844C91.4727 17.4766 90.9727 17.375 90.5039 17.1797C90.0352 16.9766 89.6055 16.7109 89.2148 16.3828C88.8242 16.0469 88.4727 15.6602 88.1602 15.2227C87.8477 14.7773 87.582 14.3125 87.3633 13.8281C87.1523 13.3359 86.9883 12.8359 86.8711 12.3281C86.7617 11.8203 86.707 11.3281 86.707 10.8516C86.707 10.1484 86.7188 9.42188 86.7422 8.67188C86.7734 7.91406 86.8242 7.15625 86.8945 6.39844C86.9648 5.64062 87.0547 4.89062 87.1641 4.14844C87.2812 3.40625 87.4258 2.69531 87.5977 2.01562C88.5508 2.0625 89.5078 2.10547 90.4688 2.14453C91.4297 2.18359 92.3867 2.19531 93.3398 2.17969C93.1602 2.85938 92.9805 3.54297 92.8008 4.23047C92.6289 4.91016 92.4727 5.59766 92.332 6.29297C92.1914 6.98047 92.0781 7.67188 91.9922 8.36719C91.9062 9.0625 91.8633 9.76562 91.8633 10.4766C91.8633 10.6406 91.8711 10.875 91.8867 11.1797C91.9023 11.4844 91.9414 11.7852 92.0039 12.082C92.0742 12.3789 92.1758 12.6406 92.3086 12.8672C92.4492 13.0859 92.6445 13.1953 92.8945 13.1953C93.1914 13.1953 93.457 13.0703 93.6914 12.8203C93.9258 12.5625 94.1328 12.2188 94.3125 11.7891C94.4922 11.3594 94.6445 10.8633 94.7695 10.3008C94.9023 9.73828 95.0117 9.15234 95.0977 8.54297C95.1914 7.92578 95.2656 7.30469 95.3203 6.67969C95.375 6.05469 95.4141 5.46875 95.4375 4.92188C95.4688 4.36719 95.4883 3.87109 95.4961 3.43359C95.5117 2.99609 95.5195 2.65625 95.5195 2.41406C95.5195 2.25781 95.5156 2.10547 95.5078 1.95703C95.5 1.80859 95.4883 1.65625 95.4727 1.5C95.9805 1.51562 96.4844 1.52734 96.9844 1.53516C97.4844 1.54297 97.9883 1.54688 98.4961 1.54688C98.8867 1.54688 99.2773 1.54688 99.668 1.54688C100.066 1.53906 100.465 1.52344 100.863 1.5ZM115.301 6.70312C115.301 7.3125 115.246 7.86719 115.137 8.36719C115.035 8.85938 114.871 9.3125 114.645 9.72656C114.418 10.1406 114.125 10.5234 113.766 10.875C113.406 11.2266 112.973 11.5625 112.465 11.8828L115.254 16.8516L109.98 17.8828L108.176 12.8906L106.723 12.9375L106.512 17.8125H101.473C101.512 16.0312 101.547 14.2578 101.578 12.4922C101.617 10.7266 101.66 8.95312 101.707 7.17188C101.723 6.27344 101.738 5.38281 101.754 4.5C101.77 3.61719 101.801 2.72656 101.848 1.82812C102.395 1.625 102.934 1.45703 103.465 1.32422C103.996 1.19141 104.527 1.08984 105.059 1.01953C105.598 0.941406 106.141 0.890625 106.688 0.867188C107.242 0.835937 107.809 0.820312 108.387 0.820312C109.277 0.820312 110.137 0.945313 110.965 1.19531C111.801 1.4375 112.539 1.80469 113.18 2.29688C113.82 2.78906 114.332 3.40234 114.715 4.13672C115.105 4.87109 115.301 5.72656 115.301 6.70312ZM110.051 7.07812C110.051 6.75 110.004 6.44922 109.91 6.17578C109.824 5.90234 109.691 5.66797 109.512 5.47266C109.34 5.26953 109.121 5.11328 108.855 5.00391C108.598 4.88672 108.293 4.82812 107.941 4.82812C107.785 4.82812 107.633 4.83984 107.484 4.86328C107.336 4.87891 107.191 4.90625 107.051 4.94531L106.863 9.30469H107.145C107.48 9.30469 107.82 9.26172 108.164 9.17578C108.516 9.08984 108.828 8.95703 109.102 8.77734C109.383 8.59766 109.609 8.36719 109.781 8.08594C109.961 7.80469 110.051 7.46875 110.051 7.07812Z" fill="#EC1F46"/>
</svg>

<svg xmlns="http://www.w3.org/2000/svg" width="176" height="19" fill="none"  xmlns:v="https://vecta.io/nano"><path d="M14.238 13.828c0 .65-.12 1.207-.363 1.676-.234.47-.55.867-.95 1.195s-.86.598-1.383.81c-.516.203-1.055.363-1.617.48a12.52 12.52 0 0 1-1.699.234l-1.582.058c-.484 0-.988-.02-1.512-.058a14.9 14.9 0 0 1-1.547-.176 14.31 14.31 0 0 1-1.523-.34c-.5-.148-.973-.332-1.418-.55L.62 2.063c.437-.18.902-.34 1.395-.48a13.98 13.98 0 0 1 1.5-.363c.516-.102 1.027-.176 1.535-.223.508-.055 1-.082 1.477-.082a13.5 13.5 0 0 1 1.676.105c.57.07 1.117.188 1.64.352a7.06 7.06 0 0 1 1.465.645c.453.258.848.578 1.184.96.344.383.61.828.797 1.336.195.508.293 1.094.293 1.758a3.94 3.94 0 0 1-.187 1.23c-.125.383-.305.727-.54 1.03a3.43 3.43 0 0 1-.855.785c-.336.21-.715.367-1.137.47.508.133.97.328 1.383.586.422.258.777.57 1.066.938a4 4 0 0 1 .68 1.242c.164.46.246.953.246 1.476zm-5.953-6.68c0-.227-.047-.418-.14-.574-.094-.164-.21-.297-.352-.398-.133-.102-.28-.176-.445-.223-.156-.047-.297-.07-.422-.07a1.51 1.51 0 0 0-.457.07c-.148.047-.293.102-.434.164l-.07 2.602a5.89 5.89 0 0 0 .668-.047 2.81 2.81 0 0 0 .762-.199 1.72 1.72 0 0 0 .633-.469c.172-.21.258-.496.258-.855zM6.62 10.97c-.227 0-.445.023-.656.07l-.047 2.672.34.07a2.56 2.56 0 0 0 .34.024c.164 0 .344-.016.54-.047a1.75 1.75 0 0 0 .551-.211 1.32 1.32 0 0 0 .422-.434c.117-.18.176-.418.176-.715s-.06-.54-.176-.726a1.22 1.22 0 0 0-.41-.434c-.164-.11-.344-.18-.54-.21a2.77 2.77 0 0 0-.539-.059zM27.715 8.53a14.9 14.9 0 0 1-.141 2.039l-3.984.422-3.96.563c.203.563.52 1.012.95 1.348.438.336.957.504 1.56.504.313 0 .652-.06 1.02-.176.375-.117.746-.262 1.113-.434l1.055-.574.867-.55-.562 5.32a5.1 5.1 0 0 1-.996.598 6.6 6.6 0 0 1-1.102.398 8.44 8.44 0 0 1-1.16.223 9.63 9.63 0 0 1-1.148.07c-.773 0-1.48-.105-2.12-.316s-1.223-.504-1.746-.88a6.73 6.73 0 0 1-1.359-1.348 7.84 7.84 0 0 1-.973-1.687c-.258-.61-.453-1.254-.586-1.934a10.73 10.73 0 0 1-.199-2.062 12.1 12.1 0 0 1 .199-2.18 11.13 11.13 0 0 1 .598-2.098c.273-.672.613-1.293 1.02-1.863a7.36 7.36 0 0 1 1.441-1.512 6.43 6.43 0 0 1 1.852-1.008c.695-.242 1.46-.363 2.297-.363.695 0 1.328.098 1.898.293.578.188 1.1.453 1.535.797a5.21 5.21 0 0 1 1.172 1.207 6.65 6.65 0 0 1 .82 1.547c.22.555.38 1.145.48 1.77a10.79 10.79 0 0 1 .164 1.887zm-4.687-.61a3.29 3.29 0 0 0-.07-.668 2.04 2.04 0 0 0-.234-.633c-.102-.187-.238-.34-.4-.457-.172-.125-.387-.187-.645-.187a1.4 1.4 0 0 0-.832.258c-.234.164-.437.375-.61.633-.172.25-.312.523-.422.82a6.27 6.27 0 0 0-.246.82l3.47-.328v-.258zM40.5 12c0 1.07-.187 1.996-.562 2.777-.367.774-.875 1.414-1.523 1.922-.64.5-1.395.87-2.262 1.113a10.52 10.52 0 0 1-2.777.352c-.383 0-.805-.05-1.266-.152l-1.383-.375-1.36-.492-1.148-.504.516-4.594a8.39 8.39 0 0 0 2.203.914 9.83 9.83 0 0 0 2.391.305l.54-.012a2.89 2.89 0 0 0 .598-.105c.195-.062.36-.152.492-.27s.2-.285.2-.504a.53.53 0 0 0-.141-.375c-.094-.11-.215-.195-.363-.258-.148-.07-.316-.12-.504-.152-.187-.04-.37-.066-.55-.082l-.504-.023h-.375c-.672 0-1.285-.106-1.84-.316-.547-.21-1.02-.508-1.418-.89a4.13 4.13 0 0 1-.914-1.406c-.22-.555-.328-1.168-.328-1.84 0-.922.183-1.746.55-2.473.375-.734.87-1.355 1.488-1.863.625-.516 1.34-.9 2.144-1.184s1.637-.4 2.496-.4l1.184.047a10.38 10.38 0 0 1 1.207.141c.406.07.8.16 1.184.27a6.97 6.97 0 0 1 1.09.41l-.445 4.758a13.48 13.48 0 0 0-1.676-.445c-.578-.125-1.145-.187-1.7-.187l-.398.012a3.91 3.91 0 0 0-.504.035 4.33 4.33 0 0 0-.527.082c-.18.04-.34.094-.48.164-.14.063-.254.148-.34.258s-.125.238-.117.387c.008.172.07.305.188.398.125.094.28.164.47.21.195.04.406.06.633.06l.69-.012.633-.035c.195-.016.355-.02.48-.012.625.04 1.187.172 1.687.398s.922.527 1.266.902c.352.375.617.824.797 1.348.187.516.28 1.086.28 1.71zM53.39 1.477l-.117 4.97-3.492.14-.422 10.875-4.945.258-.445-10.875-3.492.188.14-5.53 12.773-.023zm81.07 5.72c0 .758-.113 1.43-.34 2.016s-.54 1.102-.937 1.547a5.53 5.53 0 0 1-1.383 1.113c-.53.297-1.102.543-1.71.738-.602.188-1.227.328-1.875.422a16.05 16.05 0 0 1-1.91.141v4.992h-5.46v-2.602l.023-5.027.024-2.613.01-2.86.06-2.883c1-.297 2-.52 3-.668s2.03-.223 3.094-.223c.6 0 1.203.05 1.804.152a8.34 8.34 0 0 1 1.723.457 7.32 7.32 0 0 1 1.535.797c.477.313.887.688 1.23 1.125s.613.938.808 1.5c.203.563.305 1.188.305 1.875zm-5.203.398c0-.508-.156-.902-.47-1.184-.305-.29-.703-.434-1.195-.434a3.02 3.02 0 0 0-.516.047 4.56 4.56 0 0 0-.492.094l-.14 3.422c.1.016.215.023.317.023h.316a2.35 2.35 0 0 0 .809-.141c.265-.094.5-.227.703-.398.203-.18.363-.387.48-.62.125-.242.188-.512.188-.81zm16.148 4.195l-.492 5.203-9.867.773.375-16.734h6.094l-.868 10.758h4.758zm15.328 5.203l-5.812.75-.703-2.648h-2.672l-.586 2.648-5.977-.586 4.664-15.61 6.516-.328 4.57 15.773zm-6.937-5.484l-.89-4.078-.867 4.078h1.758zm21.726.563l-.035 2.625-.082 2.602-6.75-.117.6-4.137a33.86 33.86 0 0 0 .257-4.184l-.01-.492-.047-.762-.106-.88c-.04-.305-.097-.582-.175-.832-.07-.25-.16-.453-.27-.61-.102-.164-.226-.246-.375-.246-.266 0-.492.078-.68.234a1.96 1.96 0 0 0-.457.609 3.88 3.88 0 0 0-.281.82l-.164.914-.07.867-.012.656-.094 4.125-.093 4.125-5.977.258.445-8.227.352-8.227 5.53-.28-.047 1.875c.22-.266.453-.516.703-.75a4.59 4.59 0 0 1 .821-.598 3.94 3.94 0 0 1 .914-.398c.328-.102.672-.152 1.03-.152.664 0 1.246.11 1.746.328a3.96 3.96 0 0 1 1.289.891 4.96 4.96 0 0 1 .902 1.336c.243.508.438 1.05.586 1.63s.262 1.184.34 1.816l.153 1.852.046 1.77v1.56z" fill="#333"/><path d="M71.156 1.477l-.117 4.97-3.492.14-.422 10.875-4.945.258-.445-10.875-3.492.188.14-5.53 12.773-.023zm14.918 7.547c0 .71-.082 1.398-.246 2.062a7.91 7.91 0 0 1-.715 1.852 7.54 7.54 0 0 1-1.125 1.594 7.05 7.05 0 0 1-1.488 1.23c-.547.344-1.144.613-1.793.81a7.39 7.39 0 0 1-2.062.281 7.43 7.43 0 0 1-2.016-.27c-.633-.18-1.227-.43-1.78-.75-.555-.328-1.06-.72-1.512-1.172-.445-.46-.828-.97-1.148-1.524-.312-.562-.56-1.164-.738-1.805a7.7 7.7 0 0 1-.258-2.004 8.09 8.09 0 0 1 .246-1.992c.164-.656.398-1.273.703-1.852a8.15 8.15 0 0 1 1.125-1.594c.438-.484.926-.902 1.465-1.254a7.16 7.16 0 0 1 1.769-.82c.633-.195 1.3-.293 2.004-.293 1.133 0 2.164.176 3.094.527.938.352 1.734.855 2.39 1.512.664.648 1.176 1.438 1.535 2.367.367.922.55 1.953.55 3.094zm-5.203.305a3.13 3.13 0 0 0-.152-.973 2.52 2.52 0 0 0-.422-.844 2.08 2.08 0 0 0-.703-.598 1.88 1.88 0 0 0-.949-.234c-.367 0-.695.066-.984.2s-.54.316-.75.55c-.203.227-.36.496-.47.81-.11.305-.164.63-.164.973 0 .328.047.656.14.984s.234.625.422.89.418.48.69.645c.28.164.606.246.973.246s.695-.07.984-.21c.297-.148.547-.344.75-.586.203-.25.36-.535.47-.856a3.06 3.06 0 0 0 .164-.996zM100.863 1.5l-.902 8.215-.715 8.215-4.805.35.21-1.805c-.156.18-.34.336-.55.47a3.22 3.22 0 0 1-.656.328c-.234.078-.477.137-.727.176a4.51 4.51 0 0 1-.715.035c-.53-.008-1.03-.11-1.5-.305-.47-.203-.898-.47-1.29-.797a6.52 6.52 0 0 1-1.055-1.16 8.55 8.55 0 0 1-.797-1.395c-.21-.492-.375-.992-.492-1.5-.11-.508-.164-1-.164-1.476l.035-2.18.152-2.273.27-2.25.434-2.133 2.87.13 2.87.035-.54 2.05-.47 2.063-.34 2.074a17.17 17.17 0 0 0-.129 2.109l.023.703c.016.305.055.605.117.902.07.297.172.56.305.785a.66.66 0 0 0 .586.328c.297 0 .563-.125.797-.375.234-.258.44-.6.62-1.03s.332-.926.457-1.488l.328-1.758.223-1.863.117-1.758.06-1.488.023-1.02-.012-.457-.035-.457 1.512.035 1.512.012h1.172l1.195-.047zM115.3 6.703c0 .61-.055 1.164-.164 1.664a4.89 4.89 0 0 1-.492 1.359 4.91 4.91 0 0 1-.879 1.148 7.83 7.83 0 0 1-1.301 1.008l2.79 4.97-5.274 1.03-1.804-4.992-1.453.047-.21 4.875h-5.04l.105-5.32.13-5.32.047-2.672.094-2.672a15.34 15.34 0 0 1 1.617-.504 14.27 14.27 0 0 1 1.594-.305c.54-.078 1.082-.13 1.63-.152l1.7-.047c.9 0 1.75.125 2.578.375.836.242 1.574.61 2.215 1.102s1.152 1.105 1.535 1.84c.4.734.586 1.6.586 2.566zm-5.25.375a2.76 2.76 0 0 0-.141-.902c-.086-.273-.22-.508-.398-.703-.172-.203-.39-.36-.657-.47-.257-.117-.562-.176-.914-.176-.156 0-.308.012-.457.035-.148.016-.293.043-.433.082l-.188 4.36h.282c.335 0 .675-.043 1.02-.13.352-.086.664-.22.938-.398a2.13 2.13 0 0 0 .679-.691c.18-.28.27-.617.27-1.008z" fill="#ec1f46"/></svg>
